X: 186
T:Whistle Ower the Lave O't
M:4/4
L:1/8
F:http://blackrosetheband.googlepages.com/ABCTUNES.ABC May 2009
S:Source: Angus Sessions Podcast
K:Amix
e|:A2 A>B cB c2|e f/2g/2 ac BAAG|A2 A>B cB ca|1 A>c ec cBAe :|2 A>c ec cBA2||
e f/2g/2 a>g fec2|e f/2g/2 ac BAAG|e f/2g/2 a>g fe (3fga|1 A>c ec cBA2 :|2 A>c ec cBA<a||
A2 A>B cB c2|dc e>c cBAG|A2 A>B cB c<a|1 A>c ec cBA<a :|2 A>c ec cBA2||
e f/2g/2 a>g feec|e f/2g/2 ac BAAG|e f/2g/2 a>g fe (3fga|1 A>c ec cBA2 :|2 A>c ec cBA<a||

